X:8855
T:La Bussire (S. Desaunay)
C:Trad 1, 86
M:2/4
L:1/16
K:G
Bc d2 c3B|ABAG E3G|ADAd cBAG-|\
ABc B2 AG|BcdB cdcB|
ABAG EFEG|ADAd cBAG-|GAE2D4:|\
|:A2c2 BA-c- AcBAcB|\
c2e2 dc-e- cedef|gdeG BedA|
Bcfd (3efe d2|A2c2 BA-c- AcBAcB|\
c2e2 dc-e- cedef|gdeG BedA|Bc (3faf D4:|
